build/img/bg-section1@768.svg

<svg height="0" width="0">
    <defs>
        <clipPath id="svgPath-bg-section@768">
            <path fill="#FFFFFF" stroke="#000000" stroke-width="1.5794" stroke-miterlimit="10" d="M168 15.3489C249.464 16.478 276.942 -8.49875 376.271 3.25712C475.6 15.013 537.013 15.3489 556.238 15.3489C575.463 15.3489 702.028 15.3489 763.441 24.4211C824.854 33.4933 869.33 20.577 937 15.3489C986.479 11.5262 1063.5 3.25712 1063.5 3.25712V370.298C1063.5 370.298 986.469 364.076 937 363.494C861.196 362.603 881.995 379.37 743.148 373.7C604.301 368.03 645.421 354.795 550.898 370.298C456.375 385.802 439.77 379.431 348.501 373.7C231.124 376.976 212.144 367.309 168 363.494C123.856 359.68 0 370.298 0 370.298V3.25712C0 3.25712 102.229 14.4374 168 15.3489Z"/>
        </clipPath>
    </defs>
</svg>

<svg height="0" width="0"><defs><clipPath id="svgPath-bg-section@768"><path fill="#FFF" stroke="#000" stroke-width="1.579" stroke-miterlimit="10" d="M168 15.349C249.464 16.478 276.942-8.5 376.271 3.257 475.6 15.013 537.013 15.35 556.238 15.35c19.225 0 145.79 0 207.203 9.072C824.854 33.493 869.33 20.577 937 15.35c49.479-3.823 126.5-12.092 126.5-12.092v367.041s-77.031-6.222-126.5-6.804c-75.804-.891-55.005 15.876-193.852 10.206s-97.727-18.905-192.25-3.402c-94.523 15.504-111.128 9.133-202.397 3.402-117.377 3.276-136.357-6.391-180.501-10.206-44.144-3.814-168 6.804-168 6.804V3.258s102.229 11.18 168 12.09z"/></clipPath></defs></svg>
